X: 162
P: Longways for as many as will
M: 6/4
L: 1/4
K: A
E |\
(ge)f (ec)d | B3- B2 :|\
|: c |\
(df2) c2B | (ce2) B2c |\
(dc)B (cB)A | (G/A/)BG E2f |\
(ef)B B2A | A3- A2 :|

